icons-rebrand/svg/webex-teams-new-light.svg

<svg width="32" height="32" viewBox="0 0 32 32" fill="none" xmlns="http://www.w3.org/2000/svg">
<path fill-rule="evenodd" clip-rule="evenodd" d="M16 7.49988C15.5404 7.49988 15.0852 7.59041 14.6606 7.76631C14.236 7.9422 13.8501 8.2 13.5251 8.52501C13.2001 8.85001 12.9423 9.23585 12.7664 9.66049C12.5905 10.0851 12.5 10.5403 12.5 10.9999C12.5 11.4595 12.5905 11.9146 12.7664 12.3393C12.9423 12.7639 13.2001 13.1498 13.5251 13.4748C13.8501 13.7998 14.236 14.0576 14.6606 14.2335C15.0852 14.4094 15.5404 14.4999 16 14.4999C16.9283 14.4999 17.8185 14.1311 18.4749 13.4748C19.1313 12.8184 19.5 11.9281 19.5 10.9999C19.5 10.0716 19.1313 9.18139 18.4749 8.52501C17.8185 7.86863 16.9283 7.49988 16 7.49988ZM18.396 14.8099C19.2222 14.2901 19.8569 13.5158 20.2046 12.6038C20.5522 11.6917 20.5939 10.6914 20.3234 9.75355C20.0528 8.81573 19.4846 7.99132 18.7046 7.40462C17.9245 6.81793 16.9748 6.50077 15.9988 6.50098C15.0227 6.50118 14.0732 6.81874 13.2933 7.40575C12.5135 7.99277 11.9457 8.81742 11.6755 9.75535C11.4054 10.6933 11.4475 11.6936 11.7955 12.6055C12.1435 13.5174 12.7786 14.2915 13.605 14.8109C12.7423 15.0383 11.9183 15.3928 11.16 15.8629C10.6301 15.3803 10.004 15.0153 9.323 14.7919C9.72448 14.4244 10.0055 13.9441 10.1292 13.4141C10.2529 12.884 10.2136 12.329 10.0163 11.8217C9.81902 11.3144 9.47303 10.8786 9.02371 10.5714C8.57439 10.2642 8.04271 10.1 7.49842 10.1003C6.95414 10.1006 6.42264 10.2654 5.97366 10.5731C5.52467 10.8808 5.17916 11.3169 4.98244 11.8244C4.78571 12.3319 4.74696 12.887 4.87126 13.4169C4.99556 13.9468 5.27712 14.4268 5.679 14.7939C3.844 15.4079 2.5 16.9279 2.5 18.7999C2.5 19.3219 2.82 19.7069 3.193 19.9679C3.566 20.2279 4.061 20.4179 4.596 20.5539C5.473 20.7779 6.55 20.8819 7.61 20.8739C7.538 21.2739 7.5 21.6819 7.5 22.0999C7.5 22.9729 8.078 23.6299 8.829 24.0939C9.585 24.5619 10.612 24.9009 11.749 25.1319C14.028 25.5949 16.894 25.6479 19.305 25.2959C19.37 25.2864 19.4325 25.2641 19.4889 25.2305C19.5453 25.1968 19.5946 25.1523 19.6338 25.0996C19.673 25.0469 19.7015 24.987 19.7176 24.9233C19.7336 24.8596 19.737 24.7934 19.7275 24.7284C19.718 24.6634 19.6957 24.6009 19.6621 24.5445C19.6284 24.4881 19.5839 24.4388 19.5313 24.3996C19.4786 24.3604 19.4186 24.3319 19.3549 24.3158C19.2912 24.2997 19.225 24.2964 19.16 24.3059C16.855 24.6429 14.105 24.5899 11.947 24.1519C10.865 23.9319 9.968 23.6229 9.355 23.2439C8.737 22.8609 8.5 22.4709 8.5 22.0999C8.5 18.5299 11.819 15.4999 16 15.4999C18.032 15.4999 19.875 16.2219 21.224 17.3799C21.3248 17.4662 21.4557 17.509 21.588 17.4987C21.7203 17.4885 21.8432 17.4262 21.9295 17.3254C22.0158 17.2246 22.0586 17.0937 22.0484 16.9613C22.0381 16.829 21.9758 16.7062 21.875 16.6199C21.8105 16.5649 21.7452 16.5109 21.679 16.4579C22.394 15.8719 23.384 15.4999 24.5 15.4999C26.637 15.4999 28.261 16.8419 28.475 18.4299C28.4928 18.5613 28.562 18.6803 28.6675 18.7606C28.773 18.841 28.9061 18.8762 29.0375 18.8584C29.1689 18.8406 29.2879 18.7714 29.3682 18.6659C29.4486 18.5604 29.4838 18.4273 29.466 18.2959C29.242 16.6279 27.946 15.3069 26.238 14.7659C26.6617 14.4094 26.9655 13.9312 27.1083 13.3963C27.2511 12.8613 27.2259 12.2953 27.0363 11.7751C26.8466 11.2549 26.5016 10.8056 26.048 10.4881C25.5943 10.1705 25.0541 10.0001 24.5004 9.99998C23.9467 9.99982 23.4063 10.1699 22.9525 10.4872C22.4987 10.8044 22.1534 11.2536 21.9635 11.7737C21.7735 12.2938 21.748 12.8597 21.8905 13.3948C22.033 13.9298 22.3365 14.4081 22.76 14.7649C22.0474 14.9856 21.392 15.3601 20.84 15.8619C20.0824 15.391 19.2586 15.0361 18.396 14.8089V14.8099ZM7.874 19.8699C8.334 18.5369 9.194 17.3649 10.321 16.4579C9.607 15.8719 8.617 15.4999 7.5 15.4999C5.195 15.4999 3.5 17.0509 3.5 18.7999C3.5 18.8659 3.533 18.9859 3.765 19.1479C3.999 19.3109 4.363 19.4629 4.843 19.5849C5.692 19.8009 6.793 19.8989 7.873 19.8699H7.874ZM24.5 10.9999C24.2768 10.9999 24.0557 11.0439 23.8494 11.1293C23.6432 11.2147 23.4558 11.3399 23.2979 11.4978C23.1401 11.6557 23.0148 11.8431 22.9294 12.0493C22.844 12.2556 22.8 12.4766 22.8 12.6999C22.8 12.9231 22.844 13.1442 22.9294 13.3504C23.0148 13.5567 23.1401 13.7441 23.2979 13.902C23.4558 14.0598 23.6432 14.185 23.8494 14.2705C24.0557 14.3559 24.2768 14.3999 24.5 14.3999C24.9509 14.3999 25.3833 14.2208 25.7021 13.902C26.0209 13.5832 26.2 13.1508 26.2 12.6999C26.2 12.249 26.0209 11.8166 25.7021 11.4978C25.3833 11.179 24.9509 10.9999 24.5 10.9999ZM7.5 11.0999C7.27675 11.0999 7.05569 11.1439 6.84944 11.2293C6.64318 11.3147 6.45578 11.4399 6.29792 11.5978C6.14006 11.7557 6.01484 11.9431 5.9294 12.1493C5.84397 12.3556 5.8 12.5766 5.8 12.7999C5.8 13.0231 5.84397 13.2442 5.9294 13.4504C6.01484 13.6567 6.14006 13.8441 6.29792 14.002C6.45578 14.1598 6.64318 14.285 6.84944 14.3705C7.05569 14.4559 7.27675 14.4999 7.5 14.4999C7.95087 14.4999 8.38327 14.3208 8.70208 14.002C9.02089 13.6832 9.2 13.2508 9.2 12.7999C9.2 12.349 9.02089 11.9166 8.70208 11.5978C8.38327 11.279 7.95087 11.0999 7.5 11.0999Z" fill="#0F0F0F"/>
<path d="M26.5 19C26.5 18.8674 26.4473 18.7402 26.3536 18.6464C26.2598 18.5527 26.1326 18.5 26 18.5C25.8674 18.5 25.7402 18.5527 25.6464 18.6464C25.5527 18.7402 25.5 18.8674 25.5 19V22.5H22C21.8674 22.5 21.7402 22.5527 21.6464 22.6464C21.5527 22.7402 21.5 22.8674 21.5 23C21.5 23.1326 21.5527 23.2598 21.6464 23.3536C21.7402 23.4473 21.8674 23.5 22 23.5H25.5V27C25.5 27.1326 25.5527 27.2598 25.6464 27.3536C25.7402 27.4473 25.8674 27.5 26 27.5C26.1326 27.5 26.2598 27.4473 26.3536 27.3536C26.4473 27.2598 26.5 27.1326 26.5 27V23.5H30C30.1326 23.5 30.2598 23.4473 30.3536 23.3536C30.4473 23.2598 30.5 23.1326 30.5 23C30.5 22.8674 30.4473 22.7402 30.3536 22.6464C30.2598 22.5527 30.1326 22.5 30 22.5H26.5V19Z" fill="#0F0F0F"/>
</svg>

<svg id="Layer_1" data-name="Layer 1" xmlns="http://www.w3.org/2000/svg" viewBox="0 0 32 32"><defs><style>.cls-1,.cls-2{fill:#0f0f0f;}.cls-1{fill-rule:evenodd;}</style></defs><path class="cls-1" d="M26.238,14.766a2.7,2.7,0,1,0-3.478,0,5.094,5.094,0,0,0-1.92,1.1A8.931,8.931,0,0,0,18.4,14.809h0a4.5,4.5,0,1,0-4.792,0,8.971,8.971,0,0,0-2.445,1.052,5.069,5.069,0,0,0-1.837-1.071,2.7,2.7,0,1,0-3.644,0A4.343,4.343,0,0,0,2.5,18.8a1.439,1.439,0,0,0,.693,1.168,4.38,4.38,0,0,0,1.4.586,12.276,12.276,0,0,0,3.014.32A6.9,6.9,0,0,0,7.5,22.1a2.406,2.406,0,0,0,1.329,1.994,9.147,9.147,0,0,0,2.92,1.038,23.436,23.436,0,0,0,7.556.164.508.508,0,0,0,.184-.066.5.5,0,0,0,.145-.13.525.525,0,0,0,.084-.177.509.509,0,0,0-.056-.379.5.5,0,0,0-.131-.144.478.478,0,0,0-.176-.084.493.493,0,0,0-.2-.01,22.444,22.444,0,0,1-7.213-.154,8.206,8.206,0,0,1-2.592-.908c-.618-.383-.855-.773-.855-1.144,0-3.57,3.319-6.6,7.5-6.6a8.018,8.018,0,0,1,5.224,1.88.5.5,0,0,0,.706-.055.5.5,0,0,0-.055-.7c-.065-.055-.13-.109-.2-.162A4.445,4.445,0,0,1,24.5,15.5a3.792,3.792,0,0,1,3.975,2.93.5.5,0,0,0,.562.428.5.5,0,0,0,.429-.562A4.456,4.456,0,0,0,26.238,14.766ZM5.929,12.149a1.7,1.7,0,1,1,.92,2.221A1.7,1.7,0,0,1,5.8,12.8,1.714,1.714,0,0,1,5.929,12.149ZM7.874,19.87h0a11.646,11.646,0,0,1-3.03-.285,3.419,3.419,0,0,1-1.078-.437c-.232-.162-.265-.282-.265-.348,0-1.749,1.7-3.3,4-3.3a4.441,4.441,0,0,1,2.821.958A7.584,7.584,0,0,0,7.874,19.87Zm6.787-5.636A3.5,3.5,0,1,1,16,14.5,3.5,3.5,0,0,1,14.661,14.234ZM25.7,13.9a1.7,1.7,0,1,1,.5-1.2A1.7,1.7,0,0,1,25.7,13.9Z"/><path class="cls-2" d="M26.5,19a.5.5,0,1,0-1,0v3.5H22a.5.5,0,1,0,0,1h3.5V27a.5.5,0,1,0,1,0V23.5H30a.5.5,0,1,0,0-1H26.5Z"/></svg>
